X:1
T:Night Poor Larry Was Stretched, The
R:Slip Jig
C:Martin Hayes version
M:9/8
L:1/8
K:G
%%printtempo 0
Q:160
|:"Em"GFE EB,E E2G| "D" FED DA,D FGA| "Em" GFE EB,E E2G|"D" FGA ABG FED ::
"G" GAB BcB d2B|GAB Bcd "D7"cAF|"G"GAB BcA "Em"B2B|"C"c2A ABG "D"FED:|
